**kern	**kern
*part1	*part1
*staff2	*staff1
*I"Piano	*
*clefF4	*clefG2
*k[f#]	*k[f#]
=1	=1
4C 4G	4c 4e
4C 4A	4d 4f#
=	=
*	*^
4.BB 4.G	4g	4.d
.	8aL	.
8C#X 8G	8bJ	8e
=	=	=
*^	*	*
4G	2D	4b	2d
4F#	.	4a	.
*v	*v	*	*
*	*v	*v
=	=
4.D 4.B	4.fn 4.dd
8D 8B	8f 8dd
=	=
4D 4B	4fn 4dd
4E 4A	4e 4cc
=	=
4Fn 4G#X	4d 4b
4E 4G#	4e 4cc
=	=
*	*^
4AA 4A	4a	2c
4r	4e	.
*	*v	*v
=	=
4.D 4.B	4.fn 4.dd
8D 8B	8f 8dd
=	=
4D 4B	4fn 4dd
4E 4A	4e 4cc
=	=
*-	*-
!!!system-decoration: {(s1,s2)}
